assets/img/item2.svg

<svg width="48" height="48" viewBox="0 0 48 48" fill="none" xmlns="http://www.w3.org/2000/svg">
<path d="M24 0.5C36.9787 0.5 47.5 11.0213 47.5 24C47.5 36.9787 36.9787 47.5 24 47.5C11.0213 47.5 0.5 36.9787 0.5 24C0.5 11.0213 11.0213 0.5 24 0.5Z" fill="#151515" stroke="#EFBC33"/>
<path fill-rule="evenodd" clip-rule="evenodd" d="M33.3333 36.0006H14.6667C13.1933 36.0006 12 34.8073 12 33.334V20.0007C12 18.5273 13.1933 17.334 14.6667 17.334H33.3333C34.8067 17.334 36 18.5273 36 20.0007V33.334C36 34.8073 34.8067 36.0006 33.3333 36.0006Z" stroke="#EFBC33" stroke-width="1.5" stroke-linecap="round" stroke-linejoin="round"/>
<path d="M36.0007 24H31.226C30.1807 24 29.334 24.8467 29.334 25.892V27.4413C29.334 28.4867 30.1807 29.3333 31.226 29.3333H36.0007" stroke="#EFBC33" stroke-width="1.5" stroke-linecap="round" stroke-linejoin="round"/>
<path d="M26 17.3337L26.5 12.5003C26.5 12.5003 27.0893 12.4217 27.6093 12.943L32 17.3337" stroke="#EFBC33" stroke-width="1.5" stroke-linecap="round" stroke-linejoin="round"/>
<path d="M26.6667 17.3324L22.276 12.9418C21.7547 12.4204 20.9107 12.4204 20.3907 12.9418L16 17.3324" stroke="#EFBC33" stroke-width="1.5" stroke-linecap="round" stroke-linejoin="round"/>
</svg>

<svg xmlns="http://www.w3.org/2000/svg" width="48" height="48" fill="none"><path fill="#151515" stroke="#EFBC33" d="M24 .5C36.979.5 47.5 11.021 47.5 24S36.979 47.5 24 47.5.5 36.979.5 24 11.021.5 24 .5Z"/><path stroke="#EFBC33" stroke-linecap="round" stroke-linejoin="round" stroke-width="1.5" d="M33.333 36H14.667A2.666 2.666 0 0 1 12 33.335V20.001a2.666 2.666 0 0 1 2.667-2.667h18.666A2.666 2.666 0 0 1 36 20.001v13.333a2.666 2.666 0 0 1-2.667 2.667" clip-rule="evenodd"/><path stroke="#EFBC33" stroke-linecap="round" stroke-linejoin="round" stroke-width="1.5" d="M36 24h-4.774a1.89 1.89 0 0 0-1.892 1.892v1.55c0 1.045.847 1.891 1.892 1.891h4.775M26 17.334l.5-4.834s.59-.078 1.11.443l4.39 4.39"/><path stroke="#EFBC33" stroke-linecap="round" stroke-linejoin="round" stroke-width="1.5" d="m26.667 17.332-4.391-4.39a1.33 1.33 0 0 0-1.885 0L16 17.332"/></svg>
